X: 04076
T: The PRETTY GIRL IN THE NEXT TENT
C: Bob McQuillen 8 Jan 80
B: Bob's Note Book 04 #76
%R: jig
Z: 2020 John Chambers <jc:trillian.mit.edu>
M: 6/8
L: 1/8
K: A
E \
| EcB AEA | c2B A2E | EcB Ace | dBG GED |\
| EcB AEA | cBA Acd | eag edB | cAA A2 :|
|: d \
| eag ecd | ede c2A | cde dcd | eag a2g |
| age gec | dec B2G |1 AcB Acd | eag a2 :|2 AcB AcA | EAG A2 |]
%%begintext align
%% For Mary Linebaryl,
%% with much love ---
%%endtext

%%sep 1 1 500

%%sep 1 1 500

